X:1
T: The Treasure of Sierra Madre
C:
R:Strathspey
Q: 128
K:Am
M:4/4
L:1/16
|:G2|EA3 A3G Ac3 B4|cA3 A3G ED3 D3E|A4 A3G Ac3 B4|Ac3 B3d c6 G2|
EA3 A3G Ac3 B4|cA3 A3G ED3 D3E|A4 A3G Ac3 B4|Ac3 B3d c6 d2|
ec3 a3e fd3 d3f|ec3 c3e dB3 B3e|ec3 a3e fd3 d3f|ec3 d3e cA3 A3e|
ec3 a3e fd3 d3f|ec3 dB3 cA3 G3B|Ac3 B3d c3e f3a|ge3 d3e cA3 A2:|
